client/src/assets/images/icon-obstetrichistory-grey.svg

<svg viewBox="0 0 92 92" xmlns="http://www.w3.org/2000/svg"><g fill="#808080"><path d="m68.17 73.25h-44.34a.76.76 0 0 1 -.75-.75v-50.67a.76.76 0 0 1 .75-.75h12.46v1.5h-11.71v49.17h42.84v-49.17h-11.36v-1.5h12.11a.76.76 0 0 1 .75.75v50.67a.76.76 0 0 1 -.75.75z"/><path d="m63.1 69h-34.2a.76.76 0 0 1 -.75-.75v-41.88a.75.75 0 0 1 .75-.75h7.39v1.5h-6.64v40.41h32.7v-40.41h-6.29v-1.5h7a.75.75 0 0 1 .75.75v41.91a.76.76 0 0 1 -.71.72z"/><path d="m55.71 29.23h-19.42a.75.75 0 0 1 -.75-.75v-8.76a.75.75 0 0 1 .75-.75h4.44a5.4 5.4 0 0 1 10.54 0h4.44a.75.75 0 0 1 .75.75v8.76a.75.75 0 0 1 -.75.75zm-18.71-1.5h18v-7.26h-4.38a.73.73 0 0 1 -.74-.68 3.9 3.9 0 0 0 -7.76 0 .74.74 0 0 1 -.74.68h-4.38z"/><path d="m46.59 40.82a3.76 3.76 0 1 1 3.76-3.76 3.76 3.76 0 0 1 -3.76 3.76zm0-6.32a2.57 2.57 0 1 0 2.56 2.56 2.57 2.57 0 0 0 -2.56-2.56z"/><path d="m52.84 61h-13.17a.63.63 0 0 1 -.5-.26.62.62 0 0 1 -.06-.56l3-7.75-1.87-.43a.6.6 0 0 1 -.45-.71c.18-.86.39-1.72.6-2.57.16-.69.33-1.37.48-2.06l.1-.45a10.57 10.57 0 0 1 1.42-3.94 2.87 2.87 0 0 1 3-1.18 3.87 3.87 0 0 1 2.51 1.46c.22.23.46.47.74.72a7.57 7.57 0 0 0 .74.56c1 .68 2.07 1.45 1.16 3.62.82.66 2.66 2.3 3.15 4 .67 2.26-1 4-1.75 4.73l1.49 4a.6.6 0 0 1 -.07.55.61.61 0 0 1 -.52.27zm-12.29-1.2h11.45l-1.34-3.63a.59.59 0 0 1 .21-.69s2.26-1.69 1.66-3.72c-.42-1.43-2.38-3.12-3.1-3.65a.6.6 0 0 1 -.18-.75c.8-1.59.4-1.87-.57-2.55a9.45 9.45 0 0 1 -.85-.64c-.3-.27-.56-.53-.79-.78a2.76 2.76 0 0 0 -1.79-1.1c-1-.11-1.44.06-1.85.66a9.74 9.74 0 0 0 -1.24 3.51l-.16.54c-.15.69-.32 1.39-.49 2.08s-.31 1.31-.46 2l1.72.4 5.12 1.21a.74.74 0 0 0 .56-.07.64.64 0 0 0 .22-.48c0-.39 0-.5-.81-.7l-4.48-1.24a.61.61 0 0 1 -.37-.27.62.62 0 0 1 -.06-.46l.89-3.29a.6.6 0 0 1 1.16.32l-.73 2.69 3.92 1c.61.15 1.9.47 1.71 2a1.8 1.8 0 0 1 -.72 1.32 1.89 1.89 0 0 1 -1.52.26l-4.36-1z"/></g></svg>

<svg xmlns="http://www.w3.org/2000/svg" viewBox="0 0 92 92"><defs><style>.cls-1{fill:gray;}</style></defs><title>obhistory</title><g id="Content"><path class="cls-1" d="M68.17,73.25H23.83a.76.76,0,0,1-.75-.75V21.83a.76.76,0,0,1,.75-.75H36.29v1.5H24.58V71.75H67.42V22.58H56.06v-1.5H68.17a.76.76,0,0,1,.75.75V72.5A.76.76,0,0,1,68.17,73.25Z"/><path class="cls-1" d="M63.1,69H28.9a.76.76,0,0,1-.75-.75V26.37a.75.75,0,0,1,.75-.75h7.39v1.5H29.65V67.53h32.7V27.12H56.06v-1.5h7a.75.75,0,0,1,.75.75V68.28A.76.76,0,0,1,63.1,69Z"/><path class="cls-1" d="M55.71,29.23H36.29a.75.75,0,0,1-.75-.75V19.72a.75.75,0,0,1,.75-.75h4.44a5.4,5.4,0,0,1,10.54,0h4.44a.75.75,0,0,1,.75.75v8.76A.75.75,0,0,1,55.71,29.23ZM37,27.73H55V20.47H50.62a.73.73,0,0,1-.74-.68,3.9,3.9,0,0,0-7.76,0,.74.74,0,0,1-.74.68H37Z"/><path class="cls-1" d="M46.59,40.82a3.76,3.76,0,1,1,3.76-3.76A3.76,3.76,0,0,1,46.59,40.82Zm0-6.32a2.57,2.57,0,1,0,2.56,2.56A2.57,2.57,0,0,0,46.59,34.5Z"/><path class="cls-1" d="M52.84,61H39.67a.63.63,0,0,1-.5-.26.62.62,0,0,1-.06-.56l3-7.75L40.24,52a.6.6,0,0,1-.45-.71c.18-.86.39-1.72.6-2.57.16-.69.33-1.37.48-2.06l.1-.45a10.57,10.57,0,0,1,1.42-3.94,2.87,2.87,0,0,1,3-1.18,3.87,3.87,0,0,1,2.51,1.46c.22.23.46.47.74.72a7.57,7.57,0,0,0,.74.56c1,.68,2.07,1.45,1.16,3.62.82.66,2.66,2.3,3.15,4,.67,2.26-1,4-1.75,4.73l1.49,4a.6.6,0,0,1-.07.55A.61.61,0,0,1,52.84,61Zm-12.29-1.2H52l-1.34-3.63a.59.59,0,0,1,.21-.69s2.26-1.69,1.66-3.72c-.42-1.43-2.38-3.12-3.1-3.65a.6.6,0,0,1-.18-.75c.8-1.59.4-1.87-.57-2.55a9.45,9.45,0,0,1-.85-.64c-.3-.27-.56-.53-.79-.78a2.76,2.76,0,0,0-1.79-1.1c-1-.11-1.44.06-1.85.66a9.74,9.74,0,0,0-1.24,3.51L42,47c-.15.69-.32,1.39-.49,2.08s-.31,1.31-.46,2l1.72.4,5.12,1.21a.74.74,0,0,0,.56-.07.64.64,0,0,0,.22-.48c0-.39,0-.5-.81-.7L43.38,50.2a.61.61,0,0,1-.37-.27.62.62,0,0,1-.06-.46l.89-3.29A.6.6,0,0,1,45,46.5l-.73,2.69,3.92,1c.61.15,1.9.47,1.71,2a1.8,1.8,0,0,1-.72,1.32,1.89,1.89,0,0,1-1.52.26l-4.36-1Z"/></g></svg>
